svgs/sharp-light/flask.svg

<svg xmlns="http://www.w3.org/2000/svg" viewBox="0 0 448 512"><!--! Font Awesome Pro 6.6.0 by @fontawesome - https://fontawesome.com License - https://fontawesome.com/license (Commercial License) Copyright 2024 Fonticons, Inc. --><path d="M288 224l4.7 7.7L347.1 320l-246.2 0 54.3-88.3L160 224l0-9.1L160 32l128 0 0 182.9 0 9.1zM128 0L112 0 96 0l0 32 16 0 16 0 0 182.9L0 422.9 0 480l0 32 32 0 384 0 32 0 0-32 0-57.1-128-208L320 32l16 0 16 0 0-32L336 0 320 0 288 0 160 0 128 0zM32 432l49.2-80 285.5 0L416 432l0 48L32 480l0-48z"/></svg>

<svg xmlns="http://www.w3.org/2000/svg" viewBox="0 0 448 512"><!--! Font Awesome Pro 6.5.2 by @fontawesome - https://fontawesome.com License - https://fontawesome.com/license (Commercial License) Copyright 2024 Fonticons, Inc. --><path d="M288 224l4.7 7.7L347.1 320H100.9l54.3-88.3L160 224v-9.1V32H288V214.9 224zM128 0H112 96V32h16 16V214.9L0 422.9V480v32H32 416h32V480 422.9l-128-208V32h16 16V0H336 320 288 160 128zM32 432l49.2-80H366.8L416 432v48H32V432z"/></svg>
